X:1
T:Rejoice, the Lord is king
T:Rejoice, the Lord is king - Triumph (John Fawcett)
C:John Fawcett
Z:Text: Charles Wesley
%%score [ ( 1 2 ) 3 4 5 ]
L:1/8
M:2/2
K:C
V:1 treble nm="SOPRANO" snm="S."
V:2 treble 
V:3 treble nm="ALTO" snm="A."
V:4 treble-8 transpose=-12 nm="TENOR" snm="T."
V:5 bass nm="BASS" snm="B."
V:1
 c4 c3 d | (e2 c2) (d2 B2) | c6 G2 | A4 G4 | B4 c4 | d8 | d4 d3 d | e4 (d2 c2) | (c4 B2) A2 | %9
w: His king- dom|can- * not _|fail, He|rules o’er|earth and|heav’n;|The keys of|death and _|hell _ Are|
w: Re- joice, the|Lord _ is _|king, Your|God and|King a-|dore;|Mor- tals, give|thanks and _|sing, _ And|
w: Je- sus, the|Sa- * viour, _|reigns, The|God of|truth and|love;|When he had|purg’d our _|stains, _ He|
 (B2 c2 d2) (ec) | B4 A4 | G8 | z4 z2 G2 | c4 (c2 _B2) | A4 z2 A2 | d4 (d2 c2) | B4 z2 G2 | %17
w: to _ _ our _|Je- sus|giv’n:||||||
w: tri- * * umph _|ev- er-|more:||up your _|heart, lift|up your _|voice, Re-|
w: took _ _ his _|seat a-|bove:||soon shall _|hear th’arch-|an- gel’s _|voice, The|
 (c2 e2) (d2 c2) | (d2 f2) (e2 d2) | (e2 g2) (f2 e2) | d4 z2 G2 | (c3 d ed)(cB) | (cdef g2) f2 | %23
w: ||||||
w: joice, _ a- *|gain _ I _|say, _ re- *|joice, Re-|joice, _ _ _ a- *|gain _ _ _ _ I|
w: trump _ of _|God _ shall _|sound, _ re- *|joice, The|trump _ _ _ of _|God _ _ _ _ shall|
 e4 d4 | c8 |] %25
w: ||
w: say, re-|joice!|
w: sound, re-|joice!|
V:2
 x8 | x8 | x8 | x8 | x8 | x8 | x8 | x8 | x8 | x8 | x8 | x8 | x8 | x8 | x8 | x8 | x4 x2 G2 | %17
 (E2 c2) (B2 A2) | (B2 d2) (c2 B2) | (c2 e2) (d2 c2) | B4 x4 | x8 | x8 | x8 | x8 |] %25
V:3
 E4 E3 F | (G2 E2) (F2 D2) | E6 E2 | C4 E4 | F4 G4 | G8 | G4 G3 G | G4 (F2 E2) | (E4 D2) D2 | %9
w: His king- dom|can- * not _|fail, He|rules o’er|earth and|heav’n;|The keys of|death and _|hell _ Are|
w: Re- joice, the|Lord _ is _|king, Your|God and|King a-|dore;|Mor- tals, give|thanks and _|sing, _ And|
w: Je- sus, the|Sa- * viour, _|reigns, The|God of|truth and|love;|When he had|purg’d our _|stains, _ He|
 (D2 ^F2 G2) G2 | G4 ^F4 | G8 | z4 z2 G2 | G4 G4 | F4 z2 F2 | A4 A4 | G4 z4 | z8 | z8 | z8 | %20
w: to _ _ our|Je- sus|giv’n:|||||||||
w: tri- * * umph|ev- er-|more:||up your|heart, lift|up your|voice,||||
w: took _ _ his|seat a-|bove:|(v.~5)~We|soon shall|hear th’arch-|an- gel’s|voice,||||
 z4 z2 C2 | (E3 F GF)(ED) | (E2 G4) A2 | G4 (G3 F) | E8 |] %25
w: |||||
w: Re-|joice, _ _ _ a- *|gain _ I|say, re- *|joice!|
w: The|trump _ _ _ of _|God _ shall|sound, re- *|joice!|
V:4
 c4 G3 B | (c2 G2) G4 | G6 c2 | c4 c4 | d4 (e2 c2) | B8 | B4 B3 B | c4 A4 | G6 ^F2 | %9
w: His king- dom|can- * not|fail, He|rules o’er|earth and _|heav’n;|The keys of|death and|hell Are|
w: Re- joice, the|Lord _ is|king, Your|God and|King a- *|dore;|Mor- tals, give|thanks and|sing, And|
w: Je- sus, the|Sa- * viour,|reigns, The|God of|truth and _|love;|When he had|purg’d our|stains, He|
 (G2 c2 B2) e2 | d4 (d3 c) | B8 | z4 z2 d2 | e4 e4 | c4 z2 c2 | f4 f4 | d4 z4 | z8 | z8 | z8 | %20
w: to _ _ our|Je- sus _|giv’n:|||||||||
w: tri- * * umph|ev- er- *|more:||up your|heart, lift|up your|voice,||||
w: took _ _ his|seat a- *|bove:|(v.~5)~We|soon shall|hear th’arch-|an- gel’s|voice,||||
 z4 z2 c2 | (G2 c4) d2 | (c2 e4) d2 | c4 B4 | c8 |] %25
w: |||||
w: Re-|joice, _ a-|gain _ I|say, re-|joice!|
w: The|trump _ of|God _ shall|sound, re-|joice!|
V:5
 C,4 E,3 G, | C4 G,4 | C,6 E,2 | F,4 E,4 | D,4 C,4 | G,8 | G,4 G,3 G, | C4 F,4 | G,6 D,2 | %9
w: His king- dom|can- not|fail, He|rules o’er|earth and|heav’n;|The keys of|death and|hell Are|
w: Re- joice, the|Lord is|king, Your|God and|King a-|dore;|Mor- tals, give|thanks and|sing, And|
w: Je- sus, the|Sa- viour,|reigns, The|God of|truth and|love;|When he had|purg’d our|stains, He|
 (G,2 A,2 B,2) C2 | D4 D,4 | G,8 | z4 z2 G,2 | C,4 C,4 | F,4 z2 F,2 | D,4 D,4 | %16
w: to _ _ our|Je- sus|giv’n:|||||
w: tri- * * umph|ev- er-|more:||up your|heart, lift|up your|
w: took _ _ his|seat a-|bove:|(v.~5)~We|soon shall|hear th’arch-|an- gel’s|
 G,4"^Organ" G,F,E,D, | C,4 z2 C2 | G,4 z2 G,2 | %19
w: |||
w: voice, * * * *|||
w: voice, * * * *|||
"^Notes: The original order of staves is Tenor - Alto - Soprano - Bass, with the Soprano and Bass bracketed together withsmall notes between for keyboard accompaniment, and with the bass vocal part figured. This accompaniment andfiguring have been omitted from the present edition.The Tenor and Alto are both printed in the source in the treble clef an octave above sounding pitch.The first verse only of the text is given in the source: the four other verses from the text which are given in Roby'sSelection have here been added editorially." C4 z2 C,2 | %20
w: |
w: |
w: |
 G,4 z2"^Voce" (E,D,) | C,6 G,2 | C6 F,2 | G,4 G,,4 | C,8 |] %25
w: |||||
w: * Re- *|joice, a-|gain I|say, re-|joice!|
w: * The _|trump of|God shall|sound, re-|joice!|

